!!!SOCIAL_FUNCTION:	war songs
!!!PDT:	1939
!!!OTL: No_107_Clayoquot_War_Song_(b).krn
!!!LANG: Non-Tone
!!!LING_GROUP: Wakashan
!!!REG: Pacific Northwest
**kern
*staff1
=1-
*clefF4
*k[f#c#]
*M2/4
2B\
=2
4B\
4B\
=3||
*M3/4
8A\L
8F#\J
8F#\
8r
4A\
=4
8A\L
8F#\J
8E\
8r
4A\
=5||
*M2/4
8A\L
[8F#\J
4F#\]
=6
4F#\
4r
=7||
*M3/4
8F#\
8r
8F#\
8r
4A\
=8||
*M2/4
2F#\
=9
4F#\
4A\
=10||
*M3/4
8A\L
8F#\J
8F#\
8r
4A\
=11||
*M2/4
2F#\
=12
8A\
8r
4r
==
*-
